X:1
T:Rock Hill, 11.11.11.11 D
T:Rock Hill, 11.11.11.11 D
T:Isaac N. McHose, 1885
T:Public Domain Courtesy of the Cyber Hymnal™
C:Isaac N. McHose, 1885
Z:Public Domain
Z:Courtesy of the Cyber Hymnal™
%%score 1 ( 2 3 )
L:1/8
Q:1/4=80
M:6/8
K:A
V:1 treble 
V:2 bass 
V:3 bass 
V:1
 ([CA]/[DB]/) | [Ec]>[Ec][Ec] [Ec]>[EB][EA] | [FB]>[FA][DF] [CE]2 [DA] | %3
 [Ec]>[Ec][Ec] [Ec]>[EB][EA] | [Ec]>[EB][EA] [EB]2 ([CA]/[DB]/) | [Ec]>[Ec][Ec] [Ec]>[EB][EA] | %6
 [FB]>[FA][DF] [CE]2 [CE] | [DF]>[DF][Fd] [Ec]2 [DB]/[CA]/ | [DB]<[DF][DG] !fermata![CA]2 [EA] | %9
 [EB]>[EB][EB] [EB]>[Ec][Ed] | [Ed]>[Ec][EB] [Ec]2 [Ac] | [Ae]>[Ad][Ac] [Ac]>[EB][EA] | %12
 [Ac]>[EB][EA] !fermata![GB]2 [EB] | [Ec]>[Ec][Ec] [Ec]>[EB][EA] | [FB]>[FA][DF] [CE]2 [CE] | %15
 [DF]>[DF][Fd] [Ec]2 [DB]/[CA]/ | [DB]<[DF][DG] [CA]2 |] %17
V:2
 [A,,A,] | [A,,A,]>[A,,A,][A,,A,] [A,,A,]>[B,,G,][C,B,] | [D,A,]>[D,A,][D,A,] A,2 A, | %3
 A,>A,A, A,>[A,D][A,C] | A,>[A,D][A,C] [E,G,]2 [A,,A,] | %5
 [A,,A,]>[A,,A,][A,,A,] [A,,A,]>[B,,G,][C,A,] | [D,A,]>[D,A,][D,A,] [A,,A,]2 [A,,A,] | %7
 [D,A,]>[D,A,][D,A,] [D,A,]2 [E,G,]/[E,A,]/ | [E,G,]<[E,B,][E,B,] !fermata![A,,A,]2 [C,A,] | %9
 [E,G,]>[E,G,][E,G,] [E,G,]>[E,A,][E,B,] | [E,B,]>[E,A,][E,G,] A,2 [A,E] | %11
 [A,C]>[A,F][A,E] [A,E]>[A,D][A,C] | [A,E]>[A,D][A,C] !fermata![E,E]2 [E,G,] | %13
 [A,,A,]>[A,,A,][A,,A,] [A,,A,]>[B,,G,][C,A,] | [D,A,]>[D,A,][D,A,] [A,,A,]2 [A,,A,] | %15
 [D,A,]>[D,A,][D,A,] [E,A,]2 [E,G,]/[E,A,]/ | [E,G,]<[E,B,][E,B,] [A,,A,]2 |] %17
V:3
 x | x6 | x3 A,2 A, | A,>A,A, A,3/2 x3/2 | A,3/2 x9/2 | x6 | x6 | x6 | x6 | x6 | x3 A,2 x | x6 | %12
 x6 | x6 | x6 | x6 | x5 |] %17

